X: 35
T: No_30_Turkey_Dance_Song_(a).krn
N: Derived from No_30_Turkey_Dance_Song_(a).krn
%%abc-version 2.0
%%abcx-abcm2ps-target-version 5.9.1 (29 Sep 2008)
%%abc-creator hum2abc beta
%%abcx-conversion-date 2019/03/15 08:36:49
%%humdrum-veritas 3495459032
%%humdrum-veritas-data 125610516
%%linebreak <none>
%%barnumbers 0
L: 1/8
M: 2/4
%%staves {1 2}
V: 1 clef=bass
V: 2 clef=bass
K: B
[V:1] [K:clef=bass][M:2/4]F3/G/ GF | 
[V:2] [K:clef=bass][M:2/4]G,,G,, G,,G,, | 
[V:1] DF D3/D/ ||  
[V:2] G,,G,, G,,G,, ||  
[V:1] [M:7/8]D4B,G,G, ||  
[V:2] [M:7/8]G,,G,,G,,G,,G,,G,,G,, ||  
[V:1] [M:2/4]B,3/C/ CB, | 
[V:2] [M:2/4]G,,G,, G,,G,, | 
[V:1] G,/G,/B, G,3/G,/ ||  
[V:2] G,,G,, G,,G,, ||  
[V:1] [M:7/8]G,4F,D,/D,/D, ||  
[V:2] [M:7/8]G,,G,,G,,G,,G,,G,,G,, ||  
[V:1] [M:3/8]G,3/B,/B,/G,/ ||  
[V:2] [M:3/8]G,,G,,G,, ||  
[V:1] [M:5/8]F,D,/F,/F,D,3/D,/ ||  
[V:2] [M:5/8]G,,G,,G,,G,,G,, ||  
[V:1] [M:3/4]D,4D,2 ||  
[V:2] [M:3/4]G,,G,, G,,G,, G,,G,, ||  
[V:1] [M:2/4]B,3/G,/G,2 | 
[V:2] [M:2/4]!accent!G,,G,, G,, z | 
[V:1] B,3/C/ CB, | 
[V:2] G,, z G,, z | 
[V:1] G,/G,/B, G,3/G,/ ||  
[V:2] z4 ||  
[V:1] [M:3/8]G,3 | 
[V:2] [M:3/8]z3 | 
[V:1] F,3//D,//D,2 | 
[V:2] z3 | 
[V:1] G,3/B,/B,/G,/ ||  
[V:2] z G,,!accent!G,, ||  
[V:1] [M:5/8]F,D,/D,/F,D,3/D,/ ||  
[V:2] [M:5/8]G,,!accent!G,,G,,!accent!G,,G,, ||  
[V:1] [M:2/4]D,4 | 
[V:2] [M:2/4]!accent!G,,G,, !accent!G,,G,, | 
[V:1] D,2z2 ||  
[V:2] !accent!G,,G,, !accent!G,,G,, ||  
[V:1] [M:3/4](3FFF DF D3/D/ | 
[V:2] [M:3/4]G,,G,, G,,G,, G,,G,, | 
[V:1] D3B, G,G, | 
[V:2] G,,G,, G,,G,, G,,G,, | 
[V:1] (3FFF DF D3/D/ | 
[V:2] G,,G,, G,,G,, G,,G,, | 
[V:1] D3B,G,2 ||  
[V:2] G,,G,, G,,G,, G,,G,, ||  
[V:1] [M:2/4]B,B,/C/ CB, | 
[V:2] [M:2/4]G,,G,, G,,G,, | 
[V:1] G,/G,/B, G,3/G,/ | 
[V:2] G,,G,, G,,G,, | 
[V:1] G,4 | 
[V:2] G,,G,, G,,G,, | 
[V:1] F,3/D,/D,2 ||  
[V:2] G,,G,, G,,G,, ||  
[V:1] [M:3/8]G,G,/B,/B,/G,/ ||  
[V:2] [M:3/8]G,,G,,G,, ||  
[V:1] [M:5/8]F,D,/D,/F,/F,/D,3/D,/ ||  
[V:2] [M:5/8]G,,G,,G,,G,,G,, ||  
[V:1] [M:2/4]D,4 | 
[V:2] [M:2/4]G,,G,, G,,G,, | 
[V:1] D,2z2 |]  
[V:2] G,,G,,z2 |]  



